X:1
T:Title
%%score { ( 1 4 ) | ( 2 3 ) }
L:1/8
M:4/4
K:G
V:1 treble nm="Grand Piano"
V:4 treble 
V:2 treble 
V:3 treble 
V:1
 z4 z2[Q:1/4=100] DG | BBAB G2 [DG][DG] |[M:3/4] [EA][EG] [EG][CE] [B,D]2 |[M:1/4] D2 | %4
[M:4/4] G2 GA B2 AG | [FA]6 Bd |[M:3/4] ed Bd G2 |[M:1/4] GA |[M:4/4] BGEG D2 D2 | %9
 G2 GA [GB]2 [FA]2 |[M:3/4] [B,DG]6 |[M:1/4] D2 |[M:4/4] G2 GG E2 G2 | D6 z G | B2 BB B2 AG | %15
 [FA]6 Bd | edBd G2 GA | BGEG D2 D2 | G2 GA [GB]2 [FA]2 |[M:3/4] [B,DG]6 |] %20
V:2
 z4 z2 [G,B,][G,B,D] | [G,DG][G,DG][G,CG][G,DG][K:bass] [G,B,D]2 [B,,G,][B,,G,] | %2
[M:3/4] [C,G,][C,C] [C,C][C,G,] [G,,G,]2 |[M:1/4] [G,B,]2 |[M:4/4][K:treble] z4 z2 .G2 | %5
 [D,D]6 [G,G][G,B,G] |[M:3/4] [G,CG][G,B,G] [G,DG][G,B,G] [G,B,D]2 |[M:1/4] [G,B,D][G,CD] | %8
[M:4/4] [G,DG][K:bass][G,B,D][C,G,C][E,G,C] [G,B,]2 [G,B,]2 | %9
 [G,B,D]2 [G,B,D][G,CD] [D,D]2 [D,C]2 |[M:3/4] [G,,G,]6 |[M:1/4] [G,B,]2 | %12
[M:4/4] [G,B,D]2 [G,B,D][G,B,D] [C,G,C]2 [E,G,C]2 | [G,B,]6 [G,B,]2 | z4 z2 .G2 | %15
 [D,D]6 [G,G][G,B,G] | [G,CG][G,B,G][G,DG][G,B,G] [G,B,D]2 [G,B,D][G,CD] | %17
 [G,DG][K:bass][G,B,D][C,G,C][E,G,C] [G,B,]2 [G,B,]2 | [G,B,D]2 [G,B,D][G,CD] [D,D]2 [D,C]2 | %19
[M:3/4] [G,,G,]6 |] %20
V:3
 x8 | x4[K:bass] x4 |[M:3/4] x6 |[M:1/4] x2 | %4
[M:4/4][K:treble] [G,B,D]2 [G,B,D][G,CF] [G,DG]2 [A,^C]-[A,CE] | x8 |[M:3/4] x6 |[M:1/4] x2 | %8
[M:4/4] x[K:bass] x7 | x8 |[M:3/4] x6 |[M:1/4] x2 |[M:4/4] x8 | x8 | %14
 [G,DG]2 [G,DG][G,DG] [G,DG]2 [A,^C]-[A,CE] | x8 | x8 | x[K:bass] x7 | x8 |[M:3/4] x6 |] %20
V:4
 x8 | x8 |[M:3/4] x6 |[M:1/4] x2 |[M:4/4] x8 | x8 |[M:3/4] x6 |[M:1/4] x2 |[M:4/4] x8 | x8 | %10
[M:3/4] x6 |[M:1/4] x2 |[M:4/4] x8 | z4 z2 D2 | x8 | x8 | x8 | x8 | x8 |[M:3/4] x6 |] %20

